X:1
T: Mr Edward Wagstaff's Fancy
T:The House of New
C:William Marshall
Q:128
R:Strathspey
K:C
M:4/4
L:1/16
|:ED|Cc3 c4 Ec3 c4|Gc3 c4 B2d2 d2f2|ec3 c4 BcdB c2G2|A2F2 EFGF E2C2 C2ED|
Cc3 c4 Ec3 c4|Gc3 c4 B2d2 d2f2|ec3 c4 BcdB c2G2|A2F2 EFGF E2C2 C2ef|
g2c2 a2c2 g2c2 e4|g2c2 a2c2 B2d2 d2ef|g2c2 a2c2 g2c2 c'2c2|fedc BcdB c2C2 C2ef|
g2c2 a2c2 g2c2 e4|g2c2 a2c2 B2d2 d2f2|efga g4 fedc f4|cBAG ABcG E2C2 C2:|
